X:115
M:2/4
L:1/8
K:G
| GB BA | GB BG | FA AD | FA D2 | 
| g2 gf | gb ag | fd de | fg af | 
g2 gf | gb ag | f/e/d cA | G2 G2 :|| 

